!!!COM: Music21
!!!OTL: strathspey_Cha-Tòir-Iain-Mòr-An-Nighean-Dhomh
!!!OMV: strathspey_Cha-Tòir-Iain-Mòr-An-Nighean-Dhomh
**kern
*clefG2
*k[f#]
*M4/4
=1
8g
=
4a
8.aL
16ccJk
16bKL
8.aJ
8.gL
16ccJk
=
4a
8.ccL
16ddJk
8.eeL
16ddJk
16eeKL
8.ggJ
=
4a
8.aL
16ccJk
16bKL
8.aJ
8.gL
16ccJk
=
4a
8.ccL
16bJk
4.a
8ryy
=||
*M4/4
8g
!!linebreak:original
=
4a
8.aL
16ccJk
16bKL
8.aJ
8.gL
16ccJk
=
4a
8.ccL
16ddJk
8.eeL
16ddJk
16eeKL
8.ggJ
=
4a
8.aL
16ccJk
16bKL
8.aJ
8.gL
16ccJk
=
4a
8.ccL
16bJk
4.a
8ryy
=||
8gg
2..ryy
=
4aa
8.aaL
16ggJk
4ee
8.eeL
16ddJk
!!linebreak:original
=
8.ccL
16bJk
8.ccL
16ddJk
16eeKL
8.ggJ
4gg
=
4aa
8.aaL
16ggJk
4ee
8.eeL
16ddJk
=
16ccKL
8.bJ
8.ddL
16ccJk
4.a
8ryy
=||
8gg
2..ryy
=
4aa
8.aaL
16ggJk
4ee
8.eeL
16ddJk
=
8.ccL
16bJk
8.ccL
16ddJk
16eeKL
8.ggJ
4gg
!!linebreak:original
=
4aa
8.aaL
16ggJk
4ee
8.eeL
16ddJk
=
16ccKL
8.bJ
8.ddL
16ccJk
4.a
8ryy
=||
*-
